static/images/logos/systek.svg

<?xml version="1.0" encoding="UTF-8"?>
<svg width="744px" height="336px" viewBox="0 0 744 336" version="1.1" xmlns="http://www.w3.org/2000/svg" xmlns:xlink="http://www.w3.org/1999/xlink">
    <!-- Generator: Sketch 52.4 (67378) - http://www.bohemiancoding.com/sketch -->
    <title>systek</title>
    <desc>Created with Sketch.</desc>
    <g id="Page-1" stroke="none" stroke-width="1" fill="none" fill-rule="evenodd" opacity="0.2">
        <g id="systek" fill="#000000">
            <g id="Group">
                <path d="M15.8,171 C7.2,171 0.3,164.1 0.3,155.5 L0.3,119 C0.3,110.4 7.2,103.5 15.8,103.5 C24.4,103.5 31.3,110.4 31.3,119 L31.3,155.5 C31.3,164.1 24.3,171 15.8,171 Z" id="Path"></path>
                <path d="M104.8,171 C96.2,171 89.3,164.1 89.3,155.5 L89.3,76.5 C89.3,67.9 96.2,61 104.8,61 C113.4,61 120.3,67.9 120.3,76.5 L120.3,155.5 C120.3,164.1 113.3,171 104.8,171 Z" id="Path"></path>
                <path d="M282.8,171 C274.2,171 267.3,164.1 267.3,155.5 L267.3,76.5 C267.3,67.9 274.2,61 282.8,61 C291.4,61 298.3,67.9 298.3,76.5 L298.3,155.5 C298.3,164.1 291.3,171 282.8,171 Z" id="Path"></path>
                <path d="M193.8,204 C185.2,204 178.3,197.1 178.3,188.5 L178.3,15.5 C178.3,6.9 185.2,0 193.8,0 C202.4,0 209.3,6.9 209.3,15.5 L209.3,188.5 C209.3,197.1 202.3,204 193.8,204 Z" id="Path"></path>
                <path d="M371.2,171 C362.6,171 355.7,164.1 355.7,155.5 L355.7,119 C355.7,110.4 362.6,103.5 371.2,103.5 C379.8,103.5 386.7,110.4 386.7,119 L386.7,155.5 C386.7,164.1 379.8,171 371.2,171 Z" id="Path"></path>
                <path d="M728.2,171 C719.6,171 712.7,164.1 712.7,155.5 L712.7,119 C712.7,110.4 719.6,103.5 728.2,103.5 C736.8,103.5 743.7,110.4 743.7,119 L743.7,155.5 C743.7,164.1 736.8,171 728.2,171 Z" id="Path"></path>
                <path d="M460.2,171 C451.6,171 444.7,164.1 444.7,155.5 L444.7,76.5 C444.7,67.9 451.6,61 460.2,61 C468.8,61 475.7,67.9 475.7,76.5 L475.7,155.5 C475.7,164.1 468.8,171 460.2,171 Z" id="Path"></path>
                <path d="M638.2,171 C629.6,171 622.7,164.1 622.7,155.5 L622.7,76.5 C622.7,67.9 629.6,61 638.2,61 C646.8,61 653.7,67.9 653.7,76.5 L653.7,155.5 C653.7,164.1 646.8,171 638.2,171 Z" id="Path"></path>
                <path d="M549.2,204 C540.6,204 533.7,197.1 533.7,188.5 L533.7,15.5 C533.7,6.9 540.6,0 549.2,0 C557.8,0 564.7,6.9 564.7,15.5 L564.7,188.5 C564.7,197.1 557.8,204 549.2,204 Z" id="Path"></path>
            </g>
            <g id="Group" transform="translate(287.000000, 204.000000)">
                <path d="M35.8,131.5 C23.8,131.5 14.9,128.5 9.2,122.4 C3.5,116.3 0.5,106.2 0.2,92.1 L25.4,88.8 C25.4,92.8 25.6,96.2 26.1,98.9 C26.5,101.6 27.2,103.7 28,105.2 C28.8,106.6 29.7,107.7 30.7,108.2 C31.7,108.7 32.8,109.1 34,109.1 C37.3,109.1 39,106.7 39,101.9 C39,97.2 37.9,93.2 35.8,89.8 C33.7,86.4 30.3,82.7 25.6,78.7 L17.9,72.2 C15.1,69.8 12.8,67.7 11.1,65.8 C9.3,63.9 7.5,61.7 5.7,59 C3.9,56.3 2.5,53.3 1.6,50 C0.7,46.7 0.3,43.1 0.3,39.1 C0.3,28.6 3.5,20.5 9.8,14.8 C16.1,9.1 24.9,6.2 36,6.2 C55.9,6.2 66,18 66.1,41.6 L40.3,44.2 C40.3,41 40.3,38.6 40.2,37.1 C40.1,35.5 39.9,33.9 39.6,32.2 C39.3,30.5 38.7,29.3 38,28.7 C37.2,28 36.2,27.7 35,27.7 C33.2,27.7 31.8,28.7 30.9,30.6 C30,32.5 29.5,34.3 29.5,36.2 C29.5,37.2 29.6,38.2 29.8,39.2 C30,40.2 30.1,41 30.3,41.8 C30.4,42.6 30.8,43.4 31.3,44.3 C31.8,45.2 32.2,45.9 32.4,46.5 C32.6,47 33.1,47.7 33.9,48.6 C34.7,49.5 35.1,50.1 35.4,50.4 C35.6,50.7 36.2,51.4 37.2,52.2 C38.1,53.1 38.7,53.6 38.9,53.8 C39.1,54 39.7,54.5 40.8,55.5 C41.9,56.5 42.5,57 42.6,57.1 L49.6,63.3 C52.6,66 55.1,68.5 57.2,70.8 C59.3,73.1 61.3,75.8 63.2,78.9 C65.1,82 66.5,85.3 67.5,88.9 C68.5,92.5 68.9,96.4 68.9,100.5 C68.9,109.2 65.9,116.6 59.9,122.5 C53.5,128.5 45.6,131.5 35.8,131.5 Z" id="Path"></path>
                <path d="M124.875038,131.072714 C112.875038,131.072714 103.975038,128.072714 98.2750375,121.972714 C92.5750375,115.872714 89.5750375,105.772714 89.2750375,91.6727138 L114.475038,88.3727138 C114.475038,92.3727138 114.675038,95.7727138 115.175038,98.4727138 C115.575038,101.172714 116.275038,103.272714 117.075038,104.772714 C117.875038,106.172714 118.775038,107.272714 119.775038,107.772714 C120.775038,108.272714 121.875038,108.672714 123.075038,108.672714 C126.375038,108.672714 128.075038,106.272714 128.075038,101.472714 C128.075038,96.7727138 126.975038,92.7727138 124.875038,89.3727138 C122.775038,85.9727138 119.375038,82.2727138 114.675038,78.2727138 L106.975038,71.7727138 C104.175038,69.3727138 101.875038,67.2727138 100.175038,65.3727138 C98.3750375,63.4727138 96.5750375,61.2727138 94.7750375,58.5727138 C92.9750375,55.8727138 91.5750375,52.8727138 90.6750375,49.5727138 C89.7750375,46.2727138 89.3750375,42.6727138 89.3750375,38.6727138 C89.3750375,28.1727138 92.5750375,20.0727138 98.8750375,14.3727138 C105.175038,8.67271377 113.975038,5.77271377 125.075038,5.77271377 C144.975038,5.77271377 155.075038,17.5727138 155.175038,41.1727138 L129.375038,43.7727138 C129.375038,40.5727138 129.375038,38.1727138 129.275038,36.6727138 C129.175038,35.0727138 128.975038,33.4727138 128.675038,31.7727138 C128.375038,30.0727138 127.775038,28.8727138 127.075038,28.2727138 C126.275038,27.5727138 125.275038,27.2727138 124.075038,27.2727138 C122.275038,27.2727138 120.875038,28.2727138 119.975038,30.1727138 C119.075038,32.0727138 118.575038,33.8727138 118.575038,35.7727138 C118.575038,36.7727138 118.675038,37.7727138 118.875038,38.7727138 C119.075038,39.7727138 119.175038,40.5727138 119.375038,41.3727138 C119.475038,42.1727138 119.875038,42.9727138 120.375038,43.8727138 C120.875038,44.7727138 121.275038,45.4727138 121.475038,46.0727138 C121.675038,46.5727138 122.175038,47.2727138 122.975038,48.1727138 C123.775038,49.0727138 124.175038,49.6727138 124.475038,49.9727138 C124.675038,50.2727138 125.275038,50.9727138 126.275038,51.7727138 C127.175038,52.6727138 127.775038,53.1727138 127.975038,53.3727138 C128.175038,53.5727138 128.775038,54.0727138 129.875038,55.0727138 C130.975038,56.0727138 131.575038,56.5727138 131.675038,56.6727138 L138.675038,62.8727138 C141.675038,65.5727138 144.175038,68.0727138 146.275038,70.3727138 C148.375038,72.6727138 150.375038,75.3727138 152.275038,78.4727138 C154.175038,81.5727138 155.575038,84.8727138 156.575038,88.4727138 C157.575038,92.0727138 157.975038,95.9727138 157.975038,100.072714 C157.975038,108.772714 154.975038,116.172714 148.975038,122.072714 C142.475038,128.072714 134.575038,131.072714 124.875038,131.072714 Z" id="Path" transform="translate(123.625038, 68.422714) rotate(-12.000000) translate(-123.625038, -68.422714) "></path>
            </g>
        </g>
    </g>
</svg>

<svg height="336" viewBox="0 0 744 336" width="744" xmlns="http://www.w3.org/2000/svg"><g fill-rule="evenodd" opacity=".2"><path d="m15.8 171c-8.6 0-15.5-6.9-15.5-15.5v-36.5c0-8.6 6.9-15.5 15.5-15.5s15.5 6.9 15.5 15.5v36.5c0 8.6-7 15.5-15.5 15.5z"/><path d="m104.8 171c-8.6 0-15.5-6.9-15.5-15.5v-79c0-8.6 6.9-15.5 15.5-15.5s15.5 6.9 15.5 15.5v79c0 8.6-7 15.5-15.5 15.5z"/><path d="m282.8 171c-8.6 0-15.5-6.9-15.5-15.5v-79c0-8.6 6.9-15.5 15.5-15.5s15.5 6.9 15.5 15.5v79c0 8.6-7 15.5-15.5 15.5z"/><path d="m193.8 204c-8.6 0-15.5-6.9-15.5-15.5v-173c0-8.6 6.9-15.5 15.5-15.5s15.5 6.9 15.5 15.5v173c0 8.6-7 15.5-15.5 15.5z"/><path d="m371.2 171c-8.6 0-15.5-6.9-15.5-15.5v-36.5c0-8.6 6.9-15.5 15.5-15.5s15.5 6.9 15.5 15.5v36.5c0 8.6-6.9 15.5-15.5 15.5z"/><path d="m728.2 171c-8.6 0-15.5-6.9-15.5-15.5v-36.5c0-8.6 6.9-15.5 15.5-15.5s15.5 6.9 15.5 15.5v36.5c0 8.6-6.9 15.5-15.5 15.5z"/><path d="m460.2 171c-8.6 0-15.5-6.9-15.5-15.5v-79c0-8.6 6.9-15.5 15.5-15.5s15.5 6.9 15.5 15.5v79c0 8.6-6.9 15.5-15.5 15.5z"/><path d="m638.2 171c-8.6 0-15.5-6.9-15.5-15.5v-79c0-8.6 6.9-15.5 15.5-15.5s15.5 6.9 15.5 15.5v79c0 8.6-6.9 15.5-15.5 15.5z"/><path d="m549.2 204c-8.6 0-15.5-6.9-15.5-15.5v-173c0-8.6 6.9-15.5 15.5-15.5s15.5 6.9 15.5 15.5v173c0 8.6-6.9 15.5-15.5 15.5z"/><g transform="translate(287 204)"><path d="m35.8 131.5c-12 0-20.9-3-26.6-9.1s-8.7-16.2-9-30.3l25.2-3.3c0 4 .2 7.4.7 10.1.4 2.7 1.1 4.8 1.9 6.3.8 1.4 1.7 2.5 2.7 3s2.1.9 3.3.9c3.3 0 5-2.4 5-7.2 0-4.7-1.1-8.7-3.2-12.1s-5.5-7.1-10.2-11.1l-7.7-6.5c-2.8-2.4-5.1-4.5-6.8-6.4-1.8-1.9-3.6-4.1-5.4-6.8s-3.2-5.7-4.1-9-1.3-6.9-1.3-10.9c0-10.5 3.2-18.6 9.5-24.3s15.1-8.6 26.2-8.6c19.9 0 30 11.8 30.1 35.4l-25.8 2.6c0-3.2 0-5.6-.1-7.1-.1-1.6-.3-3.2-.6-4.9s-.9-2.9-1.6-3.5c-.8-.7-1.8-1-3-1-1.8 0-3.2 1-4.1 2.9s-1.4 3.7-1.4 5.6c0 1 .1 2 .3 3s.3 1.8.5 2.6c.1.8.5 1.6 1 2.5s.9 1.6 1.1 2.2c.2.5.7 1.2 1.5 2.1s1.2 1.5 1.5 1.8c.2.3.8 1 1.8 1.8.9.9 1.5 1.4 1.7 1.6s.8.7 1.9 1.7 1.7 1.5 1.8 1.6l7 6.2c3 2.7 5.5 5.2 7.6 7.5s4.1 5 6 8.1 3.3 6.4 4.3 10 1.4 7.5 1.4 11.6c0 8.7-3 16.1-9 22-6.4 6-14.3 9-24.1 9z"/><path d="m124.875038 131.072714c-12 0-20.9-3-26.6000005-9.1-5.7-6.1-8.7-16.2-9-30.3000002l25.2000005-3.3c0 4 .2 7.4.7 10.1.4 2.7000002 1.1 4.8000002 1.9 6.3000002.8 1.4 1.7 2.5 2.7 3s2.1.9 3.3.9c3.3 0 5-2.4 5-7.2 0-4.7000002-1.1-8.7000002-3.2-12.1000002s-5.5-7.1-10.2-11.1l-7.7-6.5c-2.8-2.4-5.1-4.5-6.8-6.4-1.8000005-1.9-3.6000005-4.1-5.4000005-6.8s-3.2-5.7-4.1-9-1.3-6.9-1.3-10.9c0-10.5 3.2-18.6 9.5-24.3 6.3000005-5.70000003 15.1000005-8.60000003 26.2000005-8.60000003 19.9 0 30 11.80000003 30.1 35.40000003l-25.8 2.6c0-3.2 0-5.6-.1-7.1-.1-1.6-.3-3.2-.6-4.9s-.9-2.9-1.6-3.5c-.8-.7-1.8-1-3-1-1.8 0-3.2 1-4.1 2.9s-1.4 3.7-1.4 5.6c0 1 .1 2 .3 3s.3 1.8.5 2.6c.1.8.5 1.6 1 2.5s.9 1.6 1.1 2.2c.2.5.7 1.2 1.5 2.1s1.2 1.5 1.5 1.8c.2.3.8 1 1.8 1.8.9.9 1.5 1.4 1.7 1.6s.8.7 1.9 1.7 1.7 1.5 1.8 1.6l7 6.2c3 2.7 5.5 5.2 7.6 7.5s4.1 5 6 8.1 3.3 6.4 4.3 10 1.4 7.5 1.4 11.6000002c0 8.7-3 16.1-9 22-6.5 6-14.4 9-24.1 9z" transform="matrix(.9781476 -.20791169 .20791169 .9781476 -11.524378 27.198291)"/></g></g></svg>
